public/MobilePreview/garage.svg

<svg width="16" height="16" viewBox="0 0 16 16" fill="none" xmlns="http://www.w3.org/2000/svg">
<path d="M1 14.3406V5.63873C1 4.91885 1.34781 4.27315 1.87938 4.00662L7.73969 1.06388C7.90594 0.978706 8.09187 0.978706 8.26031 1.06388L14.1206 4.00662C14.6522 4.27315 15 4.92159 15 5.63873V14.3406C15 14.706 14.7659 15 14.475 15H13.425C13.1341 15 12.9 14.706 12.9 14.3406V7.08675C12.9 6.60041 12.5872 6.2075 12.2 6.2075H3.8C3.41281 6.2075 3.1 6.60041 3.1 7.08675V14.3406C3.1 14.706 2.86594 15 2.575 15H1.525C1.23406 15 1 14.706 1 14.3406ZM11.675 15H4.325C4.03406 15 3.8 14.706 3.8 14.3406V12.8019H12.2V14.3406C12.2 14.706 11.9659 15 11.675 15ZM3.8 11.9226V10.1641H12.2V11.9226H3.8ZM3.8 9.28487V7.08675H12.2V9.28487H3.8Z" fill="#444444"/>
</svg>

<svg xmlns="http://www.w3.org/2000/svg" width="16" height="16" fill="none"><path fill="#444" d="M1 14.34V5.64c0-.72.348-1.366.88-1.632l5.86-2.943a.562.562 0 0 1 .52 0l5.86 2.943c.532.266.88.915.88 1.632v8.702c0 .365-.234.659-.525.659h-1.05c-.29 0-.525-.294-.525-.66V7.088c0-.487-.313-.88-.7-.88H3.8c-.387 0-.7.393-.7.88v7.254c0 .365-.234.659-.525.659h-1.05c-.29 0-.525-.294-.525-.66Zm10.675.66h-7.35c-.29 0-.525-.294-.525-.66v-1.538h8.4v1.539c0 .365-.234.659-.525.659ZM3.8 11.923v-1.759h8.4v1.759H3.8Zm0-2.638V7.087h8.4v2.198H3.8Z"/></svg>
